assets/img/innovation-line.svg

<svg width="418" height="20" viewBox="0 0 418 20" fill="none" xmlns="http://www.w3.org/2000/svg">
<path d="M416.582 4.87319C399.85 4.87319 383.11 5.42766 366.387 4.4529C362.112 4.19356 357.864 3.87163 353.581 3.7822L340.685 3.53178L314.894 3.04894C306.238 2.86114 297.572 2.6644 288.916 2.37824L275.841 1.89529C271.567 1.71644 265.271 1.29613 259.503 1.10833C242.235 0.553878 228.463 0.911584 211.212 0.544931C193.962 0.178279 176.72 0.267667 159.461 0.392865C146.047 0.482293 132.695 0.848945 119.317 1.28714L83.0986 2.6375C70.9782 3.12041 58.8667 3.65702 46.7642 4.24724L28.7267 5.14151C22.0733 5.46345 15.3126 5.50812 8.71286 6.66174C6.87066 6.98367 4.58132 7.243 3.22202 8.88847C2.31967 9.92959 1.51165 11.049 0.807485 12.2332C0.152843 13.2071 -0.117944 14.389 0.0473536 15.5509C0.414006 17.0533 1.90744 17.7597 3.07 18.18C5.82083 19.0044 8.68617 19.3818 11.5567 19.2978C19.319 19.423 27.0813 19.6377 34.8078 19.4588C38.6621 19.3694 42.5164 19.1369 46.3707 18.9223L63.7107 18.028L81.1401 17.1338L98.3817 16.3736C111.697 15.7924 125.022 15.6939 138.347 15.4257L189.955 14.4062L201.706 14.1468C205.713 14.0574 209.692 13.7176 213.689 13.494C222.784 12.9843 231.897 12.8412 240.992 12.3672C250.274 11.8754 259.548 11.1779 268.839 10.8917C278.131 10.6056 287.208 11.0706 296.401 11.321C305.594 11.5714 314.76 10.9901 323.944 10.847C333.129 10.7039 342.536 10.7487 351.837 10.6682C361.137 10.5877 370.33 10.4445 379.559 10.1226C388.788 9.80063 398.044 9.60399 407.282 8.77232L413.908 8.20892L415.751 8.07476C416.304 8.12999 416.863 8.09374 417.405 7.96745C417.709 7.67893 417.902 7.29271 417.951 6.87635C418.007 6.65398 418.015 6.42221 417.975 6.19637C417.935 5.97052 417.847 5.75579 417.718 5.56638C417.589 5.37697 417.42 5.21724 417.225 5.09774C417.029 4.97824 416.81 4.90166 416.582 4.87319Z" fill="#F5B400"/>
</svg>

<svg width="418" height="20" fill="none" xmlns="http://www.w3.org/2000/svg"><path d="M416.582 4.873c-16.732 0-33.472.555-50.195-.42-4.275-.26-8.523-.581-12.806-.67l-12.896-.251-25.791-.483c-8.656-.188-17.322-.385-25.978-.67l-13.075-.484c-4.274-.179-10.57-.599-16.338-.787-17.268-.554-31.04-.196-48.291-.563-17.25-.367-34.492-.277-51.751-.152-13.414.09-26.766.456-40.144.894l-36.218 1.35c-12.12.483-24.232 1.02-36.335 1.61l-18.037.895c-6.654.321-13.414.366-20.014 1.52-1.842.322-4.132.581-5.491 2.226a23.252 23.252 0 0 0-2.415 3.345 4.748 4.748 0 0 0-.76 3.318c.367 1.502 1.86 2.209 3.023 2.629a26.829 26.829 0 0 0 8.487 1.118c7.762.125 15.524.34 23.25.16 3.855-.089 7.71-.321 11.564-.536l17.34-.894 17.43-.894 17.24-.76c13.316-.582 26.641-.68 39.966-.948l51.608-1.02 11.751-.26c4.007-.089 7.986-.428 11.983-.652 9.095-.51 18.208-.653 27.303-1.127 9.282-.492 18.556-1.19 27.847-1.475 9.292-.286 18.369.179 27.562.429 9.193.25 18.359-.33 27.543-.474 9.185-.143 18.592-.098 27.893-.179 9.3-.08 18.493-.223 27.722-.545 9.229-.322 18.485-.519 27.723-1.35l6.626-.564 1.843-.134a5.07 5.07 0 0 0 1.654-.108 1.79 1.79 0 0 0 .546-1.09 1.624 1.624 0 0 0-.726-1.78 1.62 1.62 0 0 0-.643-.224Z" fill="#F5B400"/></svg>
